X: 113203
T: LORD RAMSAY
Q: "Strathspey."
R:  Strathspey.
%R: strathspey
B: James Kerr "Merry Melodies" v.1 p.13 s.2 #3
Z: 2017 John Chambers <jc:trillian.mit.edu>
M: C
L: 1/8
K: Bb
ue |\
vd>veuf>ug (f<d)f2 | d>fb>g (f<d)c2 |\
d>ef>g f>g (d<b) | (f<d) d>B Tc2 B :|\
ud |\
F>BD>B F>BD2 | (3(dcB) f>d c>BG2 |
F>BD>B F>BD>e | (3(dcB) f>d Tc2 B>d |\
F>BD>B F>BD>B | (3(dcB) f>d c>B (G<B) |\
F>BD>F (G<B) e>g | f>b g/f/e/d/ Tc2 B |]

%%sep 1 1 500
%%sep 1 1 500

